32x32/actions/appointment-new.svg

<svg xmlns="http://www.w3.org/2000/svg" viewBox="0 0 32 32"><path style="fill:currentColor;fill-opacity:1;stroke:none;color:#555e70" d="M16 4A12 12 0 0 0 4 16a12 12 0 0 0 12 12 12 12 0 0 0 12-12A12 12 0 0 0 16 4zm0 1a11 11 0 0 1 11 11 11 11 0 0 1-11 11A11 11 0 0 1 5 16 11 11 0 0 1 16 5zm-1 2v10h9v-1h-8V7h-1z"/></svg>

<svg xmlns="http://www.w3.org/2000/svg" viewBox="0 0 32 32">
  <defs
     id="defs3051">
    <style
       type="text/css"
       id="current-color-scheme">
      .ColorScheme-Text {
        color:#555e70;
      }
      </style>
  </defs>
  <path
     style="fill:currentColor;fill-opacity:1;stroke:none" 
     d="M 16 4 A 12 12 0 0 0 4 16 A 12 12 0 0 0 16 28 A 12 12 0 0 0 28 16 A 12 12 0 0 0 16 4 z M 16 5 A 11 11 0 0 1 27 16 A 11 11 0 0 1 16 27 A 11 11 0 0 1 5 16 A 11 11 0 0 1 16 5 z M 15 7 L 15 17 L 24 17 L 24 16 L 16 16 L 16 7 L 15 7 z "
     id="path78" 
     class="ColorScheme-Text"
     />
</svg>
